X: 17351
T: High Drive, The
R: reel
M: 4/4
K: Dmajor
|:A|"D"d3 e {g}fedA|"G"B/B/B gB {c}BAGB|"D"GA A/A/A fedf|"A"eA A/A/A afge|
"D"d3 e {g}fedA|"G"B/B/B gB {c}BAGB|"D"GA A/A/A fedf|"A"edce [1"D"d3:|2 "D"defg||
|:"D"a2 ag ad d/d/d|"G"AB B/B/B gBdB|"D"GA A/A/A fedf|"A"eA A/A/A
[1 efge|"D"a2 ag ad d/d/d|"G"AB B/B/B gBdB|"D"GA A/A/A fedf|"A"edce "D"defg:|
[2"D"afge|"D"d3 e {g}fedA|"G"B/B/B gB {c}BAGB|"D"GA A/A/A fedf|"A"edce "D"d3||
|:A|"D"dA"A"eA "D"fA A/A/A|"G"gBBA Baag|"D"fA A/A/A afdf|"A"eA A/A/A "D"afge|
"D"dA"A"eA "D"fA A/A/A|"G"gBBA Baag|"D"fA A/A/A afdf|1 "A"edce "D"d3:|2 "A"edce "D"defg||
|:"D"adda ddad|"G"gddg ddgd|"D"fddf ddfd|"Em"edde "A"defg|
"D"adda ddad|"G"gBdg BdGB|"D"GA A/A/A fedf|1 "A"edce "D"defg:|2 "A"edce "D"d3||

